X:1
T:Only Yesterday
C:Richard Carpenter
L:1/4
M:C
I:linebreak $
K:Eb
"Eb" E2 E G | B2 (3B A G |"Fm" F4 | z4 |"Fo" F2 F A | d2 (3d c B |"Eb" A3/2 B/ G2 | z4 |$
"Cm" E G B |"F7" e2 (3e d c |"Bb" d4 |"Gm" d/d/ d e B |"Ab" c4 |"Fm" c/c/ c B A |"Bb7" G3/2 A/ F2 |
z4 :|$"Db" A A G F | A A G F |"Bb7" F F G/ A3/2 | F4 |"Db" A A G F | A A G F |"Bb7" (3F F F F2 |
(3D D D E F ||$"Eb" G G G/ G3/2 | A G F/ E3/2 |"Fm" C G F/ E3/2 |"Bb7" D/ C/ B, z2 |
"Eb" G G G/ G3/2 | A G F E |"Fm" C G F E |"Bb7" D D E F |$ z"G7" G, =B, D | G F E D |
"Cm" E E/ F E/ G |"C7" z2 z C |"Fm" B2 A G |"Bb7" F2 E D |"Ab" F4 |"Bb7" F F E D |"Eb" E4 |$ z4 |
"Fø" z4 | z4 |"Do" z4 | z4 |"Eb" z4 | z4 |]

